X:6
T:Rondeau En ma Dame
T:Coup : ds / dd / ds /ds
C:Style Arena
M:3/4
L:1/4
K:C
g2g | e2c | f2e/d/ | c2B | ded | c3 |
g2g | e2c | f2e/d/ | c2z |
g2g | e2c | f2e/d/ | c2z |
g2g | e2c | f2e/d/ | c2B | ded | c2z |
g2g | e2c | f2e/d/ | c2B | ded | c3  |]
